X:1
T:Title
%%score { ( 1 3 ) | ( 2 4 ) }
L:1/8
M:4/4
K:Eb
V:1 treble nm="Grand Piano"
V:3 treble 
V:2 bass 
V:4 bass 
V:1
 z4 z2[Q:1/4=96] EG | [GB]2 [GB][GB] [Ac]2 [GB]>[_G=A] | [GB]4 [B,EG]2 [B,E][B,DF] | %3
 [B,EG]2 [B,EG][B,EG] [EGB]2 [EGB]>[B,EG] |[M:3/4] [B,DF]6 |[M:1/4] [G,E][B,EG] | %6
[M:4/4] [GB]2 [GB][GB] [Ac]2 [GB]>[_G=A] | [GB]4 G2 BB | [Ge]2 [EB][Ec] [EG]2 [A,DF]>[A,DF] | %9
[M:3/4] [G,E]6 |[M:1/4] GA |[M:4/4] z/ e3/2- e4 z2 | z/ G3/2- G4 z2 | %13
 [B,EG][EGB][EGB][Ec] [EB]<[B,EG] [B,FA]>[B,EG] | [B,DF]6 GA | z/ e3/2- e4 z2 | z/ G3/2- G4 z2 | %17
 [Ge]<[Ge] Bc G<G [DF]>[DF] |[M:3/4] E6 |] %19
V:2
 z4 z2 [E,G,][E,B,E] | [E,E]2 [E,E][E,E] [E,E]2 [E,E]>[E,E] | [E,E]4 E,2 G,,B,, | %3
 E,2 E,E, E,2 E,>E, |[M:3/4] B,,6 |[M:1/4] E,E, |[M:4/4] [E,E]2 [E,E][E,E] [E,E]2 [E,E]>[E,E] | %7
 [E,E]4 [E,B,E]2 [E,G,E][E,G,E] | [E,B,]2 G,A, B,2 B,,>B,, |[M:3/4] E,6 |[M:1/4][K:treble] EF | %11
[M:4/4] z/ G3/2- G4[K:bass][K:treble] z2 | z/[K:bass] E3/2- E4 z2 | E,E,E,A, G,<E, D,>E, | %14
 B,,6[K:treble] EF | z/ G3/2- G4[K:bass][K:treble] z2 | z/[K:bass] E3/2- E4 z2 | %17
 [E,B,]<[E,B,] [G,E][A,E] [B,E]<[B,E] [B,,A,]>[B,,A,] |[M:3/4] [E,G,]4 z2 |] %19
V:3
 x8 | x8 | x8 | x8 |[M:3/4] x6 |[M:1/4] x2 |[M:4/4] x8 | x8 | x8 |[M:3/4] x6 |[M:1/4] x2 | %11
[M:4/4] .B2 B,B, C<B, ec | .B2 B,B, C<B, [B,E][B,DF] | x8 | x8 | .B2 B,B, C<B, ec | %16
 .B2 B,B, C<B, BB | x8 |[M:3/4] x6 |] %19
V:4
 x8 | x8 | x8 | x8 |[M:3/4] x6 |[M:1/4] x2 |[M:4/4] x8 | x8 | x8 |[M:3/4] x6 | %10
[M:1/4][K:treble] x2 |[M:4/4] .G2 E,[K:bass]E, E,<E,[K:treble] GA | .G2[K:bass] E,E, E,<E, G,,B,, | %13
 x8 | x6[K:treble] x2 | .G2 E,[K:bass]E, E,<E,[K:treble] GA | %16
 .G2[K:bass] E,E, E,<E, [E,G,E][E,G,E] | x8 |[M:3/4] x6 |] %19

